lib/assets/icons/svg/outlined-action-settings.svg

<svg xmlns="http://www.w3.org/2000/svg" viewBox="0 0 24 24"><path d="M12.049 15.905c-2.964 0-4.816-3.208-3.334-5.775 1.482-2.567 5.186-2.567 6.668 0a3.848 3.848 0 0 1-3.334 5.775zm0-6.7c-2.194 0-3.565 2.375-2.468 4.275 1.097 1.9 3.839 1.9 4.936 0 .25-.433.382-.925.382-1.425a2.859 2.859 0 0 0-2.85-2.85zm1.63 12.56h-3.42a1 1 0 0 1-1-1v-1.77a.53.53 0 0 0-.26-.48 6.968 6.968 0 0 1-1.1-.63.542.542 0 0 0-.56 0l-1.6.88a1 1 0 0 1-1.36-.33l-1.74-3.13a1 1 0 0 1 .36-1.35l1.6-.91a.49.49 0 0 0 .27-.5v-.59a1.783 1.783 0 0 1 0-.31c.005-.09.005-.18 0-.27a.59.59 0 0 0-.27-.61l-1.6-.84a1 1 0 0 1-.35-1.37l1.78-2.95a1 1 0 0 1 .82-.46c.202 0 .396.079.54.22l1.51.85a.618.618 0 0 0 .63 0c.322-.218.656-.418 1-.6a.57.57 0 0 0 .36-.5v-1.88a1 1 0 0 1 1-1h3.42a1 1 0 0 1 1 1v1.89a.55.55 0 0 0 .32.49c.385.176.753.387 1.1.63a.542.542 0 0 0 .56 0l1.57-.89a1 1 0 0 1 1.36.32l1.74 3a1 1 0 0 1-.36 1.34l-1.6.9a.49.49 0 0 0-.27.5v1a1.615 1.615 0 0 0 0 .22.51.51 0 0 0 .25.55l1.58.9c.086.044.166.098.24.16a.93.93 0 0 1 .06 1.29l-1.68 2.87a1 1 0 0 1-1.36.33l-1.57-.89a.579.579 0 0 0-.57 0 6.427 6.427 0 0 1-1.08.62.57.57 0 0 0-.34.5v1.85a1 1 0 0 1-.98.95zm-6.11-5a1.55 1.55 0 0 1 .88.27c.287.209.595.386.92.53.556.244.916.793.92 1.4v1.84h3.39v-1.81a1.54 1.54 0 0 1 .94-1.41c.318-.144.62-.321.9-.53a1.57 1.57 0 0 1 1.63-.08l1.59.9 1.73-2.92-1.56-.88a1.48 1.48 0 0 1-.77-1.49c-.008-.1-.008-.2 0-.3a1.615 1.615 0 0 0 0-.22v-.58a1.47 1.47 0 0 1 .86-1.45l1.56-.88-1.8-2.93-1.58.91a1.53 1.53 0 0 1-1.63-.08 6.416 6.416 0 0 0-.92-.53 1.51 1.51 0 0 1-.92-1.4v-1.89h-3.39v1.81a1.53 1.53 0 0 1-.94 1.4 11 11 0 0 0-.92.54 1.62 1.62 0 0 1-1.66.08l-1.58-.9-1.66 2.89 1.55.89c.516.303.814.873.77 1.47.009.12.009.24 0 .36-.004.06-.004.12 0 .18v.53a1.47 1.47 0 0 1-.88 1.44l-1.52.84 1.76 3.11 1.58-.93a1.53 1.53 0 0 1 .75-.18z"/></svg>

<svg viewBox="0 0 24 24" xmlns="http://www.w3.org/2000/svg">
  <path  d="M 12.049 15.905 C 9.085 15.905 7.233 12.697 8.715 10.13 C 10.197 7.563 13.901 7.563 15.383 10.13 C 15.721 10.715 15.899 11.379 15.899 12.055 C 15.899 14.181 14.175 15.905 12.049 15.905 Z M 12.049 9.205 C 9.855 9.205 8.484 11.58 9.581 13.48 C 10.678 15.38 13.42 15.38 14.517 13.48 C 14.767 13.047 14.899 12.555 14.899 12.055 C 14.894 10.483 13.621 9.21 12.049 9.205 Z M 13.679 21.765 L 10.259 21.765 C 9.707 21.765 9.259 21.317 9.259 20.765 L 9.259 18.995 C 9.268 18.799 9.168 18.615 8.999 18.515 C 8.614 18.339 8.246 18.128 7.899 17.885 C 7.727 17.781 7.511 17.781 7.339 17.885 L 5.739 18.765 C 5.271 19.043 4.667 18.897 4.379 18.435 L 2.639 15.305 C 2.373 14.832 2.532 14.233 2.999 13.955 L 4.599 13.045 C 4.786 12.953 4.895 12.752 4.869 12.545 L 4.869 11.955 C 4.86 11.852 4.86 11.748 4.869 11.645 C 4.874 11.555 4.874 11.465 4.869 11.375 C 4.914 11.135 4.806 10.893 4.599 10.765 L 2.999 9.925 C 2.524 9.643 2.367 9.03 2.649 8.555 L 4.429 5.605 C 4.609 5.325 4.916 5.152 5.249 5.145 C 5.451 5.145 5.645 5.224 5.789 5.365 L 7.299 6.215 C 7.493 6.33 7.735 6.33 7.929 6.215 C 8.251 5.997 8.585 5.797 8.929 5.615 C 9.136 5.533 9.277 5.338 9.289 5.115 L 9.289 3.235 C 9.289 2.683 9.737 2.235 10.289 2.235 L 13.709 2.235 C 14.261 2.235 14.709 2.683 14.709 3.235 L 14.709 5.125 C 14.713 5.336 14.837 5.527 15.029 5.615 C 15.414 5.791 15.782 6.002 16.129 6.245 C 16.301 6.349 16.517 6.349 16.689 6.245 L 18.259 5.355 C 18.724 5.075 19.328 5.217 19.619 5.675 L 21.359 8.675 C 21.619 9.146 21.46 9.738 20.999 10.015 L 19.399 10.915 C 19.212 11.007 19.103 11.208 19.129 11.415 C 19.129 11.545 19.129 12.305 19.129 12.415 C 19.124 12.488 19.124 12.562 19.129 12.635 C 19.083 12.853 19.184 13.076 19.379 13.185 L 20.959 14.085 C 21.045 14.129 21.125 14.183 21.199 14.245 C 21.563 14.589 21.589 15.159 21.259 15.535 L 19.579 18.405 C 19.291 18.867 18.687 19.013 18.219 18.735 L 16.649 17.845 C 16.472 17.745 16.256 17.745 16.079 17.845 C 15.74 18.086 15.378 18.294 14.999 18.465 C 14.799 18.553 14.667 18.747 14.659 18.965 L 14.659 20.815 C 14.633 21.34 14.205 21.755 13.679 21.765 Z M 7.569 16.765 C 7.883 16.764 8.19 16.858 8.449 17.035 C 8.736 17.244 9.044 17.421 9.369 17.565 C 9.925 17.809 10.285 18.358 10.289 18.965 L 10.289 20.805 L 13.679 20.805 L 13.679 18.995 C 13.682 18.379 14.052 17.825 14.619 17.585 C 14.937 17.441 15.239 17.264 15.519 17.055 C 16.005 16.726 16.633 16.695 17.149 16.975 L 18.739 17.875 L 20.469 14.955 L 18.909 14.075 C 18.369 13.786 18.062 13.193 18.139 12.585 C 18.131 12.485 18.131 12.385 18.139 12.285 C 18.144 12.212 18.144 12.138 18.139 12.065 L 18.139 11.485 C 18.093 10.869 18.436 10.29 18.999 10.035 L 20.559 9.155 L 18.759 6.225 L 17.179 7.135 C 16.666 7.425 16.032 7.393 15.549 7.055 C 15.257 6.853 14.95 6.676 14.629 6.525 C 14.068 6.287 13.705 5.735 13.709 5.125 L 13.709 3.235 L 10.319 3.235 L 10.319 5.045 C 10.314 5.658 9.944 6.209 9.379 6.445 C 9.079 6.605 8.759 6.785 8.459 6.985 C 7.963 7.315 7.325 7.346 6.799 7.065 L 5.219 6.165 L 3.559 9.055 L 5.109 9.945 C 5.625 10.248 5.923 10.818 5.879 11.415 C 5.888 11.535 5.888 11.655 5.879 11.775 C 5.875 11.835 5.875 11.895 5.879 11.955 L 5.879 12.485 C 5.918 13.102 5.566 13.678 4.999 13.925 L 3.479 14.765 L 5.239 17.875 L 6.819 16.945 C 7.049 16.822 7.308 16.76 7.569 16.765 Z"/>
</svg>
